X:581
T:Minuet Della Cour.
C:John Malchair's Third Collection of Tunes
F:https://www.vwml.org/record/Malchair/3619/p58
F:www.vwml.org/topics/historic-dance-and-tune-books/Malchair
Z:Eric Conrad Jan 2020
M:3/4
L:1/16
R:minuet
K:D
%%text playd by the Same Savoyard.
P:A
F4 FGFG A2A2 | A4 G4 F4 | D2F2D2F2D2F2 | G4 E8 |
F4 FGFG A2A2 | A4 G4 F4 | E2GE D4 C4 | D12 ||
P:B
E4 E2E2E2E2 | F4 {EF}D8 | F4 F2F2 A2F2 | {G}F4 {EF}E8 |
A4 A2A2A2A2 | B4 B2B2B2B2 | c4 c2c2c2c2 | d12 |
d6 B2c2A2 | d6 B2c2A2 | B4 A4 ^G4 | A6 A2B2A2 |
G2F2E2G2A2G2 | F2E2D2A2B2A2 | G2F2E2G2A2G2 | F2E2D2A2d2c2 |
B8 A4 | G8 F4 | E2F2 G4 F4 | F4 E8 |
F4 FGFG A2A2 | A4 G4 F4 | E2GE D4 C4 | D12 |]


